X:1002
T:Abbots Bromley Horn Dance
R:Jig
C:Trad.
O:England (Thaxted)
M:6/8
L:1/8
Q:1/8=150
K:Em
e|"Em"B2e G2e|B2e E2G|"B7"F>GA "Em"G>AB|"B7"A>GF "Em"G2 e|
"Em"B2e G2e|B2e E2G|"B7"F>GA "Em"G>AB|"B7"A>GF "Em"E2 e||
"Am"c2e cde|A2c ABc|"D"FGA "Em"GFE|"D"DEF "Em"B,2g|
"C"e2g efg|c2e cde|"D"dcB "B7"AGF|"Em"E3 E2 A||
|:"Em"B>cB "Am"c3|"Em"B>cB "Am"e3|"Em"B>cB "B7"A>GF|"Em"G2F E2 (3F/G/A/|
"Em"B>cB "Am"c3|"Em"B>cB "Am"e3|"Em"B>cB "B7"A>GF|"Em"E3 E3:|

